img/results-04.svg

<svg width="32" height="32" viewBox="0 0 32 32" fill="none" xmlns="http://www.w3.org/2000/svg">
<path d="M29.6 3.2001H25.6V2.4001C25.6 1.9581 25.242 1.6001 24.8 1.6001C24.358 1.6001 24 1.9581 24 2.4001V3.2001H8V2.4001C8 1.9581 7.642 1.6001 7.2 1.6001C6.758 1.6001 6.4 1.9581 6.4 2.4001V3.2001H2.4C1.077 3.2001 0 4.2771 0 5.6001V28.0001C0 29.3231 1.077 30.4001 2.4 30.4001H29.6C30.923 30.4001 32 29.3231 32 28.0001V5.6001C32 4.2771 30.923 3.2001 29.6 3.2001ZM2.4 4.8001H6.4V7.2001C6.4 7.6421 6.758 8.0001 7.2 8.0001C7.642 8.0001 8 7.6421 8 7.2001V4.8001H24V7.2001C24 7.6421 24.358 8.0001 24.8 8.0001C25.242 8.0001 25.6 7.6421 25.6 7.2001V4.8001H29.6C30.042 4.8001 30.4 5.1581 30.4 5.6001V9.6001H1.6V5.6001C1.6 5.1581 1.958 4.8001 2.4 4.8001ZM29.6 28.8001H2.4C1.958 28.8001 1.6 28.4421 1.6 28.0001V11.2001H30.4V28.0001C30.4 28.4421 30.042 28.8001 29.6 28.8001ZM12 16.0001H10.4C9.958 16.0001 9.6 15.6421 9.6 15.2001C9.6 14.7581 9.958 14.4001 10.4 14.4001H12C12.442 14.4001 12.8 14.7581 12.8 15.2001C12.8 15.6421 12.442 16.0001 12 16.0001ZM16.8 16.0001H15.2C14.758 16.0001 14.4 15.6421 14.4 15.2001C14.4 14.7581 14.758 14.4001 15.2 14.4001H16.8C17.242 14.4001 17.6 14.7581 17.6 15.2001C17.6 15.6421 17.242 16.0001 16.8 16.0001ZM21.6 16.0001H20C19.558 16.0001 19.2 15.6421 19.2 15.2001C19.2 14.7581 19.558 14.4001 20 14.4001H21.6C22.042 14.4001 22.4 14.7581 22.4 15.2001C22.4 15.6421 22.042 16.0001 21.6 16.0001ZM26.4 16.0001H24.8C24.358 16.0001 24 15.6421 24 15.2001C24 14.7581 24.358 14.4001 24.8 14.4001H26.4C26.842 14.4001 27.2 14.7581 27.2 15.2001C27.2 15.6421 26.842 16.0001 26.4 16.0001ZM7.2 19.2001H5.6C5.158 19.2001 4.8 18.8421 4.8 18.4001C4.8 17.9581 5.158 17.6001 5.6 17.6001H7.2C7.642 17.6001 8 17.9581 8 18.4001C8 18.8421 7.642 19.2001 7.2 19.2001ZM12 19.2001H10.4C9.958 19.2001 9.6 18.8421 9.6 18.4001C9.6 17.9581 9.958 17.6001 10.4 17.6001H12C12.442 17.6001 12.8 17.9581 12.8 18.4001C12.8 18.8421 12.442 19.2001 12 19.2001ZM16.8 19.2001H15.2C14.758 19.2001 14.4 18.8421 14.4 18.4001C14.4 17.9581 14.758 17.6001 15.2 17.6001H16.8C17.242 17.6001 17.6 17.9581 17.6 18.4001C17.6 18.8421 17.242 19.2001 16.8 19.2001ZM21.6 19.2001H20C19.558 19.2001 19.2 18.8421 19.2 18.4001C19.2 17.9581 19.558 17.6001 20 17.6001H21.6C22.042 17.6001 22.4 17.9581 22.4 18.4001C22.4 18.8421 22.042 19.2001 21.6 19.2001ZM26.4 19.2001H24.8C24.358 19.2001 24 18.8421 24 18.4001C24 17.9581 24.358 17.6001 24.8 17.6001H26.4C26.842 17.6001 27.2 17.9581 27.2 18.4001C27.2 18.8421 26.842 19.2001 26.4 19.2001ZM7.2 22.4001H5.6C5.158 22.4001 4.8 22.0421 4.8 21.6001C4.8 21.1581 5.158 20.8001 5.6 20.8001H7.2C7.642 20.8001 8 21.1581 8 21.6001C8 22.0421 7.642 22.4001 7.2 22.4001ZM12 22.4001H10.4C9.958 22.4001 9.6 22.0421 9.6 21.6001C9.6 21.1581 9.958 20.8001 10.4 20.8001H12C12.442 20.8001 12.8 21.1581 12.8 21.6001C12.8 22.0421 12.442 22.4001 12 22.4001ZM16.8 22.4001H15.2C14.758 22.4001 14.4 22.0421 14.4 21.6001C14.4 21.1581 14.758 20.8001 15.2 20.8001H16.8C17.242 20.8001 17.6 21.1581 17.6 21.6001C17.6 22.0421 17.242 22.4001 16.8 22.4001ZM21.6 22.4001H20C19.558 22.4001 19.2 22.0421 19.2 21.6001C19.2 21.1581 19.558 20.8001 20 20.8001H21.6C22.042 20.8001 22.4 21.1581 22.4 21.6001C22.4 22.0421 22.042 22.4001 21.6 22.4001ZM26.4 22.4001H24.8C24.358 22.4001 24 22.0421 24 21.6001C24 21.1581 24.358 20.8001 24.8 20.8001H26.4C26.842 20.8001 27.2 21.1581 27.2 21.6001C27.2 22.0421 26.842 22.4001 26.4 22.4001ZM7.2 25.6001H5.6C5.158 25.6001 4.8 25.2421 4.8 24.8001C4.8 24.3581 5.158 24.0001 5.6 24.0001H7.2C7.642 24.0001 8 24.3581 8 24.8001C8 25.2421 7.642 25.6001 7.2 25.6001ZM12 25.6001H10.4C9.958 25.6001 9.6 25.2421 9.6 24.8001C9.6 24.3581 9.958 24.0001 10.4 24.0001H12C12.442 24.0001 12.8 24.3581 12.8 24.8001C12.8 25.2421 12.442 25.6001 12 25.6001ZM16.8 25.6001H15.2C14.758 25.6001 14.4 25.2421 14.4 24.8001C14.4 24.3581 14.758 24.0001 15.2 24.0001H16.8C17.242 24.0001 17.6 24.3581 17.6 24.8001C17.6 25.2421 17.242 25.6001 16.8 25.6001ZM21.6 25.6001H20C19.558 25.6001 19.2 25.2421 19.2 24.8001C19.2 24.3581 19.558 24.0001 20 24.0001H21.6C22.042 24.0001 22.4 24.3581 22.4 24.8001C22.4 25.2421 22.042 25.6001 21.6 25.6001ZM26.4 25.6001H24.8C24.358 25.6001 24 25.2421 24 24.8001C24 24.3581 24.358 24.0001 24.8 24.0001H26.4C26.842 24.0001 27.2 24.3581 27.2 24.8001C27.2 25.2421 26.842 25.6001 26.4 25.6001Z" fill="#008DBB"/>
</svg>

<svg xmlns="http://www.w3.org/2000/svg" width="32" height="32" viewBox="0 0 32 32" fill="#B68157"><title>calendar-full</title><path d="M29.6 3.2h-4v-0.8c0-0.442-0.358-0.8-0.8-0.8s-0.8 0.358-0.8 0.8v0.8h-16v-0.8c0-0.442-0.358-0.8-0.8-0.8s-0.8 0.358-0.8 0.8v0.8h-4c-1.323 0-2.4 1.077-2.4 2.4v22.4c0 1.323 1.077 2.4 2.4 2.4h27.2c1.323 0 2.4-1.077 2.4-2.4v-22.4c0-1.323-1.077-2.4-2.4-2.4zM2.4 4.8h4v2.4c0 0.442 0.358 0.8 0.8 0.8s0.8-0.358 0.8-0.8v-2.4h16v2.4c0 0.442 0.358 0.8 0.8 0.8s0.8-0.358 0.8-0.8v-2.4h4c0.442 0 0.8 0.358 0.8 0.8v4h-28.8v-4c0-0.442 0.358-0.8 0.8-0.8zM29.6 28.8h-27.2c-0.442 0-0.8-0.358-0.8-0.8v-16.8h28.8v16.8c0 0.442-0.358 0.8-0.8 0.8zM12 16h-1.6c-0.442 0-0.8-0.358-0.8-0.8s0.358-0.8 0.8-0.8h1.6c0.442 0 0.8 0.358 0.8 0.8s-0.358 0.8-0.8 0.8zM16.8 16h-1.6c-0.442 0-0.8-0.358-0.8-0.8s0.358-0.8 0.8-0.8h1.6c0.442 0 0.8 0.358 0.8 0.8s-0.358 0.8-0.8 0.8zM21.6 16h-1.6c-0.442 0-0.8-0.358-0.8-0.8s0.358-0.8 0.8-0.8h1.6c0.442 0 0.8 0.358 0.8 0.8s-0.358 0.8-0.8 0.8zM26.4 16h-1.6c-0.442 0-0.8-0.358-0.8-0.8s0.358-0.8 0.8-0.8h1.6c0.442 0 0.8 0.358 0.8 0.8s-0.358 0.8-0.8 0.8zM7.2 19.2h-1.6c-0.442 0-0.8-0.358-0.8-0.8s0.358-0.8 0.8-0.8h1.6c0.442 0 0.8 0.358 0.8 0.8s-0.358 0.8-0.8 0.8zM12 19.2h-1.6c-0.442 0-0.8-0.358-0.8-0.8s0.358-0.8 0.8-0.8h1.6c0.442 0 0.8 0.358 0.8 0.8s-0.358 0.8-0.8 0.8zM16.8 19.2h-1.6c-0.442 0-0.8-0.358-0.8-0.8s0.358-0.8 0.8-0.8h1.6c0.442 0 0.8 0.358 0.8 0.8s-0.358 0.8-0.8 0.8zM21.6 19.2h-1.6c-0.442 0-0.8-0.358-0.8-0.8s0.358-0.8 0.8-0.8h1.6c0.442 0 0.8 0.358 0.8 0.8s-0.358 0.8-0.8 0.8zM26.4 19.2h-1.6c-0.442 0-0.8-0.358-0.8-0.8s0.358-0.8 0.8-0.8h1.6c0.442 0 0.8 0.358 0.8 0.8s-0.358 0.8-0.8 0.8zM7.2 22.4h-1.6c-0.442 0-0.8-0.358-0.8-0.8s0.358-0.8 0.8-0.8h1.6c0.442 0 0.8 0.358 0.8 0.8s-0.358 0.8-0.8 0.8zM12 22.4h-1.6c-0.442 0-0.8-0.358-0.8-0.8s0.358-0.8 0.8-0.8h1.6c0.442 0 0.8 0.358 0.8 0.8s-0.358 0.8-0.8 0.8zM16.8 22.4h-1.6c-0.442 0-0.8-0.358-0.8-0.8s0.358-0.8 0.8-0.8h1.6c0.442 0 0.8 0.358 0.8 0.8s-0.358 0.8-0.8 0.8zM21.6 22.4h-1.6c-0.442 0-0.8-0.358-0.8-0.8s0.358-0.8 0.8-0.8h1.6c0.442 0 0.8 0.358 0.8 0.8s-0.358 0.8-0.8 0.8zM26.4 22.4h-1.6c-0.442 0-0.8-0.358-0.8-0.8s0.358-0.8 0.8-0.8h1.6c0.442 0 0.8 0.358 0.8 0.8s-0.358 0.8-0.8 0.8zM7.2 25.6h-1.6c-0.442 0-0.8-0.358-0.8-0.8s0.358-0.8 0.8-0.8h1.6c0.442 0 0.8 0.358 0.8 0.8s-0.358 0.8-0.8 0.8zM12 25.6h-1.6c-0.442 0-0.8-0.358-0.8-0.8s0.358-0.8 0.8-0.8h1.6c0.442 0 0.8 0.358 0.8 0.8s-0.358 0.8-0.8 0.8zM16.8 25.6h-1.6c-0.442 0-0.8-0.358-0.8-0.8s0.358-0.8 0.8-0.8h1.6c0.442 0 0.8 0.358 0.8 0.8s-0.358 0.8-0.8 0.8zM21.6 25.6h-1.6c-0.442 0-0.8-0.358-0.8-0.8s0.358-0.8 0.8-0.8h1.6c0.442 0 0.8 0.358 0.8 0.8s-0.358 0.8-0.8 0.8zM26.4 25.6h-1.6c-0.442 0-0.8-0.358-0.8-0.8s0.358-0.8 0.8-0.8h1.6c0.442 0 0.8 0.358 0.8 0.8s-0.358 0.8-0.8 0.8z"></path></svg>
